assets/icons/network/wireless/signal-good-secure.svg

<?xml version="1.0" encoding="UTF-8" standalone="no"?>
<svg viewBox="0 0 24 24" height="24" width="24" version="1.1" id="svg6" sodipodi:docname="wireless-signal-good-secure.svg" inkscape:version="1.1 (ce6663b3b7, 2021-05-25)"
   xmlns:inkscape="http://www.inkscape.org/namespaces/inkscape"
   xmlns:sodipodi="http://sodipodi.sourceforge.net/DTD/sodipodi-0.dtd"
   xmlns="http://www.w3.org/2000/svg"
   xmlns:svg="http://www.w3.org/2000/svg">
   <defs id="defs10" />
   <sodipodi:namedview id="namedview8" pagecolor="#ffffff" bordercolor="#666666" borderopacity="1.0" inkscape:pageshadow="2" inkscape:pageopacity="0.0" inkscape:pagecheckerboard="0" showgrid="true" inkscape:snap-page="true" inkscape:zoom="28" inkscape:cx="12.660714" inkscape:cy="13.285714" inkscape:window-width="1920" inkscape:window-height="1043" inkscape:window-x="1920" inkscape:window-y="0" inkscape:window-maximized="1" inkscape:current-layer="svg6">
      <inkscape:grid type="xygrid" id="grid914" />
   </sodipodi:namedview>
   <path id="path1857" style="color:#000000;fill:#808080;fill-opacity:1;-inkscape-stroke:none" d="M 12 5 C 5.8055611 5 2.6210935 8.6738281 2.6210938 8.6738281 L 2.3476562 8.9921875 L 12 20.789062 L 12.386719 20.316406 L 14 18.34375 L 14 17 L 14 16 L 15 16 L 15 15 C 15 14.299808 15.301927 13.576981 15.876953 13.001953 C 16.484171 12.394736 17.404926 12 18.5 12 C 18.724851 12 18.941443 12.017121 19.150391 12.048828 L 21.652344 8.9921875 L 21.378906 8.6738281 C 21.378906 8.6738281 18.194438 5 12 5 z M 12 6 C 17.362262 6 19.89694 8.6390295 20.294922 9.0722656 L 18.832031 10.861328 C 17.511235 9.9935065 15.28961 9 12 9 C 8.7103892 9 6.4887654 9.9935065 5.1679688 10.861328 L 3.7050781 9.0722656 C 4.1030585 8.6390295 6.6377376 6 12 6 z " />
   <path id="rect872" style="fill:#808080;fill-opacity:1;fill-rule:evenodd;stroke:none;stroke-width:0.5;stroke-linecap:round;stroke-linejoin:round" d="m 18.5,13 c -0.86111,0 -1.509235,0.302204 -1.916016,0.708984 -0.40678,0.406781 -0.583984,0.87435 -0.583984,1.291016 v 2 h -1 v 5 h 7 v -5 h -1 v -2 c 0,-0.416666 -0.177204,-0.884235 -0.583984,-1.291016 -0.406781,-0.40678 -1.054906,-0.708984 -1.916016,-0.708984 z m 0,1 c 0.638888,0 0.990765,0.197797 1.208984,0.416016 0.218219,0.218219 0.291016,0.500651 0.291016,0.583984 v 2 h -3 v -2 c 0,-0.08333 0.0728,-0.365765 0.291016,-0.583984 0.218219,-0.218219 0.570096,-0.416016 1.208984,-0.416016 z" />
</svg>

<svg height="24" width="24" xmlns="http://www.w3.org/2000/svg"><path style="color:#000;fill:gray;fill-opacity:1;-inkscape-stroke:none" d="M12 5C5.806 5 2.621 8.674 2.621 8.674l-.273.318L12 20.79l.387-.473L14 18.344V16h1v-1c0-.7.302-1.423.877-1.998C16.484 12.395 17.405 12 18.5 12c.225 0 .441.017.65.049l2.502-3.057-.273-.318S18.194 5 12 5zm0 1c5.362 0 7.897 2.639 8.295 3.072l-1.463 1.79C17.512 9.993 15.29 9 12 9s-5.511.994-6.832 1.861L3.705 9.072C4.103 8.64 6.638 6 12 6z"/><path style="fill:gray;fill-opacity:1;stroke:none;stroke-width:.5;stroke-linecap:round;stroke-linejoin:round" d="M18.5 13c-.861 0-1.51.302-1.916.709-.407.407-.584.874-.584 1.291v2h-1v5h7v-5h-1v-2c0-.417-.177-.884-.584-1.291-.407-.407-1.055-.709-1.916-.709zm0 1c.639 0 .99.198 1.209.416.218.218.291.5.291.584v2h-3v-2c0-.083.073-.366.291-.584.218-.218.57-.416 1.209-.416z"/></svg>
